src/components/00-materials/images-raw/Symbol Yen.svg

<svg width="96" height="96" viewBox="0 0 96 96" fill="none" xmlns="http://www.w3.org/2000/svg">
<path d="M68 49.0001C68.7956 49.0001 69.5587 48.684 70.1213 48.1214C70.6839 47.5588 71 46.7957 71 46.0001C71 45.2044 70.6839 44.4414 70.1213 43.8788C69.5587 43.3161 68.7956 43.0001 68 43.0001H53V42.3601L69.68 25.5701C70.1576 25.1088 70.5385 24.5571 70.8005 23.9471C71.0626 23.3371 71.2005 22.681 71.2063 22.0171C71.212 21.3532 71.0855 20.6948 70.8341 20.0803C70.5827 19.4658 70.2114 18.9076 69.742 18.4381C69.2725 17.9686 68.7143 17.5974 68.0998 17.346C67.4853 17.0946 66.8269 16.9681 66.163 16.9738C65.4991 16.9796 64.843 17.1175 64.233 17.3796C63.623 17.6416 63.0712 18.0225 62.61 18.5001L48.11 33.0001L33.57 18.5001C32.627 17.5893 31.364 17.0853 30.053 17.0967C28.742 17.1081 27.4879 17.6339 26.5609 18.561C25.6339 19.488 25.108 20.7421 25.0966 22.0531C25.0852 23.3641 25.5892 24.6271 26.5 25.5701L43 42.1801V43.0001H28C27.2044 43.0001 26.4413 43.3161 25.8787 43.8788C25.3161 44.4414 25 45.2044 25 46.0001C25 46.7957 25.3161 47.5588 25.8787 48.1214C26.4413 48.684 27.2044 49.0001 28 49.0001H43V57.0001H28C27.2044 57.0001 26.4413 57.3161 25.8787 57.8788C25.3161 58.4414 25 59.2044 25 60.0001C25 60.7957 25.3161 61.5588 25.8787 62.1214C26.4413 62.684 27.2044 63.0001 28 63.0001H43V77.0001C43 78.3262 43.5268 79.5979 44.4645 80.5356C45.4021 81.4733 46.6739 82.0001 48 82.0001C49.3261 82.0001 50.5979 81.4733 51.5355 80.5356C52.4732 79.5979 53 78.3262 53 77.0001V63.0001H68C68.7956 63.0001 69.5587 62.684 70.1213 62.1214C70.6839 61.5588 71 60.7957 71 60.0001C71 59.2044 70.6839 58.4414 70.1213 57.8788C69.5587 57.3161 68.7956 57.0001 68 57.0001H53V49.0001H68Z" stroke="#00008F" stroke-width="2" stroke-linecap="round" stroke-linejoin="round"/>
</svg>

<svg width="96" height="96" viewBox="0 0 96 96" fill="none" xmlns="http://www.w3.org/2000/svg"><path d="M68 49a3 3 0 000-6H53v-.64l16.68-16.79a5 5 0 10-7.07-7.07L48.11 33 33.57 18.5a5 5 0 00-7.07 7.07L43 42.18V43H28a3 3 0 100 6h15v8H28a3 3 0 100 6h15v14a5 5 0 0010 0V63h15a3 3 0 000-6H53v-8h15z" stroke="#00008F" stroke-width="2" stroke-linecap="round" stroke-linejoin="round"/></svg>
